build/assets/img/svg/blade.svg

<svg width="69" height="69" viewBox="0 0 69 69" fill="none" xmlns="http://www.w3.org/2000/svg">
<g clip-path="url(#clip0)">
<path d="M14.8845 62.3521L19.6629 62.3858C20.401 62.4044 21.0899 61.7918 21.1764 60.9467L21.3201 23.3898C21.3388 22.6517 20.7261 21.9628 19.8811 21.8763C19.1429 21.8576 18.4541 22.4703 18.3676 23.3153L18.1932 59.5029L16.2604 59.4758L16.4595 10.2546L24.54 10.2846C25.2782 10.3033 25.9671 9.69066 26.0536 8.84561L26.077 3.61075L42.6945 3.66069L42.4963 8.93459C42.5065 9.39105 42.6524 9.63369 42.9053 9.94421C43.1581 10.2547 43.5467 10.3514 43.8284 10.3803L46.6741 10.3869L46.5694 48.1186C46.5507 48.8567 47.1634 49.5456 48.0084 49.6321C48.7466 49.6507 49.4354 49.0381 49.5219 48.1931L49.6266 10.4614L52.0158 10.4782L51.7099 59.6316L43.6294 59.6015C42.8912 59.5829 42.2023 60.1955 42.1158 61.0405L42.0924 66.2754L25.4749 66.2255L25.4983 60.9906C25.517 60.2525 24.9043 59.5636 24.0593 59.4771C23.6028 59.4873 23.3602 59.6332 23.0497 59.8861C22.7392 60.1389 22.6425 60.5275 22.6136 60.8092L22.5529 67.5204C22.8448 68.0056 23.0298 68.4231 23.2827 68.7336C23.5355 69.0441 23.9241 69.1408 24.2058 69.1696L43.6689 69.2262C44.4071 69.2448 45.096 68.6322 45.1825 67.7871L45.2059 62.5523L53.2864 62.5824C53.7429 62.5722 53.9855 62.4262 54.2961 62.1734C54.6066 61.9205 54.7033 61.5319 54.8 61.1433L54.9028 35.1099L55.0057 9.0764C55.0243 8.33826 54.4117 7.64936 53.5666 7.56287L45.4861 7.5328L45.5096 2.29794C45.5282 1.55979 44.9156 0.870899 44.0705 0.784407L24.5004 0.659976C24.044 0.670185 23.8013 0.81613 23.4908 1.06898C23.1803 1.32183 23.0836 1.71042 23.0548 1.99211L23.0313 7.22697L14.9508 7.1969C14.6403 7.44975 14.2907 7.52782 13.9802 7.78068C13.6697 8.03353 13.573 8.42212 13.4763 8.81071L13.3775 60.9455C13.3878 61.402 13.5337 61.6446 13.7865 61.9551C14.1073 62.1587 14.428 62.3623 14.8845 62.3521Z" fill="#444444"/>
<path d="M30.3737 60.6355C31.0932 61.3923 32.1911 61.7893 33.2109 61.8367C34.2307 61.8842 35.2403 61.4752 36.065 60.6487C36.8217 59.9292 37.2187 58.8313 37.2662 57.8115L37.3077 42.3886C38.0357 41.9508 38.6567 41.4451 39.2777 40.9394C40.8591 39.3934 41.76 37.2655 41.709 34.9832C41.7444 31.8558 40.0321 29.1189 37.3985 27.5969L37.44 12.174C37.4875 11.1542 37.0785 10.1446 36.252 9.31996C35.5325 8.5632 34.4346 8.16619 33.4148 8.11874C32.395 8.07129 31.3853 8.48029 30.5607 9.30672C29.804 10.0262 29.4069 11.1241 29.3595 12.144L29.318 27.5669C28.59 28.0047 27.969 28.5104 27.348 29.0161C25.7666 30.562 24.8657 32.69 24.9167 34.9723C24.8813 38.0996 26.5936 40.8366 29.2272 42.3585L29.1857 57.7814C29.2451 58.8691 29.6541 59.8787 30.3737 60.6355ZM32.0313 57.788L32.1203 41.3453C32.0711 40.7141 31.6723 40.1609 31.1768 39.9964C29.0488 39.0954 27.7744 37.0864 27.8302 34.872C27.8675 33.3957 28.4681 31.9771 29.4285 30.9368C29.9426 30.3633 30.6026 30.0323 31.0879 29.7405L31.2627 29.7014C31.8549 29.4774 32.1942 28.9429 32.2519 28.3795L32.273 12.0437C32.2238 11.4124 32.8448 10.9067 33.4082 10.9644C33.6899 10.9932 33.9715 11.0221 34.2244 11.3326C34.3703 11.5752 34.5163 11.8179 34.5944 12.1674L34.5732 28.5032C34.5156 29.0666 34.9144 29.6198 35.5168 29.8522C37.6447 30.7531 38.9871 32.6552 38.9702 35.0444C38.933 36.5207 38.3324 37.9393 37.372 38.9796C36.8579 39.5531 36.1978 39.8841 35.7125 40.176L35.5378 40.215C34.9456 40.439 34.6062 40.9736 34.5485 41.5369L34.3136 57.737C34.3629 58.3682 33.7418 58.8739 33.1785 58.8163C32.8968 58.7875 32.6151 58.7586 32.3623 58.4481C32.1484 58.3124 32.0025 58.0697 32.0313 57.788Z" fill="#444444"/>
<path d="M21.1605 19.3886L21.2248 15.9796C21.2434 15.2414 20.6308 14.5525 19.7858 14.466C19.3293 14.4763 19.0867 14.6222 18.7762 14.8751C18.4656 15.1279 18.3689 15.5165 18.3401 15.7982L18.2758 19.2072C18.2572 19.9453 18.8698 20.6342 19.7149 20.7207C20.5599 20.8072 21.1419 20.1267 21.1605 19.3886Z" fill="#444444"/>
</g>
<defs>
<clipPath id="clip0">
<path d="M0 0H69V69H0V0Z" fill="white"/>
</clipPath>
</defs>
</svg>

<svg width="69" height="69" fill="none" xmlns="http://www.w3.org/2000/svg"><g clip-path="url(#clip0)" fill="#444"><path d="M14.884 62.352l4.779.034c.738.018 1.427-.594 1.513-1.44l.144-37.556c.019-.738-.594-1.427-1.439-1.514-.738-.018-1.427.594-1.513 1.44l-.175 36.187-1.933-.027.2-49.221 8.08.03c.738.018 1.427-.594 1.514-1.44l.023-5.234 16.617.05-.198 5.274c.01.456.156.699.41 1.01.252.31.64.406.922.435l2.846.007-.105 37.732c-.018.738.594 1.427 1.44 1.513.738.019 1.426-.594 1.513-1.439l.105-37.732 2.389.017-.306 49.154-8.08-.03c-.739-.02-1.428.594-1.514 1.439l-.024 5.234-16.617-.05.023-5.234c.019-.739-.594-1.427-1.439-1.514-.456.01-.699.156-1.01.41-.31.252-.407.64-.435.922l-.061 6.711c.292.486.477.903.73 1.214.252.31.641.407.923.436l19.463.056c.738.019 1.427-.594 1.514-1.439l.023-5.235 8.08.03c.457-.01.7-.156 1.01-.409.31-.253.407-.641.504-1.03l.103-26.033.103-26.034c.018-.738-.594-1.427-1.44-1.513l-8.08-.03.024-5.235c.018-.738-.594-1.427-1.44-1.514L24.5.66c-.456.01-.699.156-1.01.409-.31.253-.406.641-.435.923l-.024 5.235-8.08-.03c-.31.253-.66.33-.97.584-.311.253-.408.641-.505 1.03l-.099 52.135c.01.456.157.699.41 1.01.32.203.641.406 1.097.396z"/><path d="M30.374 60.636c.72.756 1.817 1.153 2.837 1.2 1.02.048 2.03-.36 2.854-1.187.757-.72 1.154-1.818 1.201-2.837l.042-15.423c.728-.438 1.349-.944 1.97-1.45a8.044 8.044 0 002.431-5.956c.035-3.127-1.677-5.864-4.31-7.386l.041-15.423c.047-1.02-.361-2.03-1.188-2.854-.72-.757-1.817-1.154-2.837-1.201-1.02-.048-2.03.361-2.854 1.188-.757.72-1.154 1.817-1.201 2.837l-.042 15.423c-.728.438-1.349.943-1.97 1.45a8.044 8.044 0 00-2.431 5.955c-.036 3.128 1.677 5.865 4.31 7.386l-.041 15.423c.06 1.088.468 2.098 1.188 2.855zm1.657-2.848l.09-16.443c-.05-.63-.449-1.184-.944-1.349-2.128-.9-3.403-2.91-3.347-5.124a6.09 6.09 0 011.599-3.935c.514-.574 1.174-.905 1.659-1.197l.175-.039c.592-.224.931-.758.989-1.322l.021-16.335c-.05-.632.572-1.137 1.135-1.08.282.03.563.058.816.369.146.242.292.485.37.834l-.02 16.336c-.058.564.34 1.117.943 1.35 2.128.9 3.47 2.802 3.453 5.191a6.09 6.09 0 01-1.598 3.936c-.514.573-1.174.904-1.66 1.196l-.174.039c-.592.224-.932.759-.99 1.322l-.234 16.2c.049.631-.572 1.137-1.136 1.08-.281-.03-.563-.058-.816-.369a.696.696 0 01-.33-.66zM21.16 19.389l.065-3.41c.018-.738-.594-1.426-1.44-1.513-.456.01-.698.156-1.009.41-.31.252-.407.64-.436.922l-.064 3.41c-.019.737.594 1.426 1.439 1.513.845.086 1.427-.594 1.445-1.332z"/></g><defs><clipPath id="clip0"><path d="M0 0h69v69H0V0z" fill="#fff"/></clipPath></defs></svg>
